X: 0407
T: The Foula Reel
P: The Foula Reel
C:Collected in Shetland
R:Jig (4x40) ABABB
B:RSCDS 4-7
Z:Anselm Lingnau <anselm@strathspey.org>
M:6/8
L:1/8
K:G
D|:"C"E2G G2e|"Bm"edB BAB|"Em"G2B "D7"A2B|"G"G2A "D"GED|
   "C"E2G G2e|"Bm"edB "B7"BAB|"G"G2B "Am"A2B|"D7"[d3F3] [D3C3]:|
 |:"G"edB ABd|edB BAG|"Em"g2B A2B|"C"G2A "D7"GED|
|  "G"edB ABd|edB BAG|"Em"g2B "Am"A2B|[1"D7"[d3F3][D3C3]:|2 "D7"[d3F3] "G"G3:|
%%center Book04/0407-Foula_Reel-AL.abc

%%sep 1 1 500
%%sep 1 1 500

